public/images/icons/img_report.svg

<svg width="144" height="103" viewBox="0 0 144 103" fill="none" xmlns="http://www.w3.org/2000/svg">
<path d="M43.1895 4C43.1895 1.79086 44.9803 0 47.1895 0H126.303C128.512 0 130.303 1.79086 130.303 4V99C130.303 101.209 128.512 103 126.303 103H47.1895C44.9803 103 43.1895 101.209 43.1895 99V4Z" fill="#E1EBE5"/>
<path d="M43.1895 4C43.1895 1.79086 44.9803 0 47.1895 0H126.303C128.512 0 130.303 1.79086 130.303 4V99C130.303 101.209 128.512 103 126.303 103H47.1895C44.9803 103 43.1895 101.209 43.1895 99V4Z" fill="#3B5E49"/>
<circle cx="61.9888" cy="19.0645" r="6.88432" fill="#F56565"/>
<rect x="56.6934" y="35.2158" width="60.1054" height="6.08997" rx="3.04499" fill="url(#paint0_linear_1312_3914)" fill-opacity="0.6"/>
<rect x="56.6934" y="48.1904" width="60.1054" height="6.08997" rx="3.04499" fill="url(#paint1_linear_1312_3914)" fill-opacity="0.6"/>
<rect x="56.6934" y="61.1646" width="60.1054" height="6.08997" rx="3.04499" fill="url(#paint2_linear_1312_3914)" fill-opacity="0.6"/>
<rect x="56.6934" y="74.1387" width="30.7147" height="6.08997" rx="3.04499" fill="url(#paint3_linear_1312_3914)" fill-opacity="0.6"/>
<path d="M93.9873 49.0127C93.9873 46.8036 95.7782 45.0127 97.9873 45.0127H139.03C141.24 45.0127 143.03 46.8036 143.03 49.0127V103H93.9873V49.0127Z" fill="#FAFAFA"/>
<circle cx="104.571" cy="55.7454" r="3.87575" fill="#F6AD55"/>
<rect x="101.59" y="64.8384" width="33.8383" height="3.42855" rx="1.71427" fill="url(#paint4_linear_1312_3914)" fill-opacity="0.4"/>
<rect x="101.59" y="72.1431" width="33.8383" height="3.42855" rx="1.71427" fill="url(#paint5_linear_1312_3914)" fill-opacity="0.4"/>
<rect x="101.59" y="79.4473" width="33.8383" height="3.42855" rx="1.71427" fill="url(#paint6_linear_1312_3914)" fill-opacity="0.4"/>
<rect x="101.59" y="86.7515" width="17.2918" height="3.42855" rx="1.71427" fill="url(#paint7_linear_1312_3914)" fill-opacity="0.4"/>
<path d="M0.969727 23.2895C0.969727 21.0804 2.76059 19.2896 4.96973 19.2896H46.0128C48.222 19.2896 50.0128 21.0804 50.0128 23.2896V73.2767C50.0128 75.4858 48.222 77.2767 46.0128 77.2767H4.96973C2.76059 77.2767 0.969727 75.4858 0.969727 73.2767V23.2895Z" fill="#D3F8E0"/>
<circle cx="11.5535" cy="30.0227" r="3.87575" fill="#ECC94B"/>
<rect x="8.57227" y="39.1157" width="33.8383" height="3.42855" rx="1.71427" fill="url(#paint8_linear_1312_3914)" fill-opacity="0.4"/>
<rect x="8.57227" y="46.4199" width="33.8383" height="3.42855" rx="1.71427" fill="url(#paint9_linear_1312_3914)" fill-opacity="0.4"/>
<rect x="8.57227" y="53.7241" width="33.8383" height="3.42855" rx="1.71427" fill="url(#paint10_linear_1312_3914)" fill-opacity="0.4"/>
<rect x="8.57227" y="61.0283" width="17.2918" height="3.42855" rx="1.71427" fill="url(#paint11_linear_1312_3914)" fill-opacity="0.4"/>
<defs>
<linearGradient id="paint0_linear_1312_3914" x1="56.6559" y1="41.3058" x2="116.709" y2="41.3058" gradientUnits="userSpaceOnUse">
<stop stop-color="#85AD95"/>
<stop offset="1" stop-color="#B5CEBF"/>
</linearGradient>
<linearGradient id="paint1_linear_1312_3914" x1="56.6559" y1="54.2804" x2="116.709" y2="54.2804" gradientUnits="userSpaceOnUse">
<stop stop-color="#85AD95"/>
<stop offset="1" stop-color="#B5CEBF"/>
</linearGradient>
<linearGradient id="paint2_linear_1312_3914" x1="56.6559" y1="67.2545" x2="116.709" y2="67.2545" gradientUnits="userSpaceOnUse">
<stop stop-color="#85AD95"/>
<stop offset="1" stop-color="#B5CEBF"/>
</linearGradient>
<linearGradient id="paint3_linear_1312_3914" x1="56.6742" y1="80.2286" x2="87.3621" y2="80.2286" gradientUnits="userSpaceOnUse">
<stop stop-color="#85AD95"/>
<stop offset="1" stop-color="#B5CEBF"/>
</linearGradient>
<linearGradient id="paint4_linear_1312_3914" x1="101.569" y1="68.2669" x2="135.377" y2="68.2669" gradientUnits="userSpaceOnUse">
<stop stop-color="#85AD95"/>
<stop offset="1" stop-color="#B5CEBF"/>
</linearGradient>
<linearGradient id="paint5_linear_1312_3914" x1="101.569" y1="75.5716" x2="135.377" y2="75.5716" gradientUnits="userSpaceOnUse">
<stop stop-color="#85AD95"/>
<stop offset="1" stop-color="#B5CEBF"/>
</linearGradient>
<linearGradient id="paint6_linear_1312_3914" x1="101.569" y1="82.8758" x2="135.377" y2="82.8758" gradientUnits="userSpaceOnUse">
<stop stop-color="#85AD95"/>
<stop offset="1" stop-color="#B5CEBF"/>
</linearGradient>
<linearGradient id="paint7_linear_1312_3914" x1="101.579" y1="90.18" x2="118.856" y2="90.18" gradientUnits="userSpaceOnUse">
<stop stop-color="#85AD95"/>
<stop offset="1" stop-color="#B5CEBF"/>
</linearGradient>
<linearGradient id="paint8_linear_1312_3914" x1="8.55116" y1="42.5443" x2="42.3599" y2="42.5443" gradientUnits="userSpaceOnUse">
<stop stop-color="#85AD95"/>
<stop offset="1" stop-color="#B5CEBF"/>
</linearGradient>
<linearGradient id="paint9_linear_1312_3914" x1="8.55116" y1="49.8485" x2="42.3599" y2="49.8485" gradientUnits="userSpaceOnUse">
<stop stop-color="#85AD95"/>
<stop offset="1" stop-color="#B5CEBF"/>
</linearGradient>
<linearGradient id="paint10_linear_1312_3914" x1="8.55116" y1="57.1527" x2="42.3599" y2="57.1527" gradientUnits="userSpaceOnUse">
<stop stop-color="#85AD95"/>
<stop offset="1" stop-color="#B5CEBF"/>
</linearGradient>
<linearGradient id="paint11_linear_1312_3914" x1="8.56148" y1="64.4569" x2="25.8382" y2="64.4569" gradientUnits="userSpaceOnUse">
<stop stop-color="#85AD95"/>
<stop offset="1" stop-color="#B5CEBF"/>
</linearGradient>
</defs>
</svg>

<svg viewBox="0 0 144 103" fill="none" xmlns="http://www.w3.org/2000/svg"><path d="M43.19 4a4 4 0 0 1 4-4h79.113a4 4 0 0 1 4 4v95a4 4 0 0 1-4 4H47.19a4 4 0 0 1-4-4V4Z" fill="#E1EBE5"/><path d="M43.19 4a4 4 0 0 1 4-4h79.113a4 4 0 0 1 4 4v95a4 4 0 0 1-4 4H47.19a4 4 0 0 1-4-4V4Z" fill="#3B5E49"/><circle cx="61.989" cy="19.064" r="6.884" fill="#F56565"/><rect x="56.693" y="35.216" width="60.105" height="6.09" rx="3.045" fill="url(#a)" fill-opacity=".6"/><rect x="56.693" y="48.19" width="60.105" height="6.09" rx="3.045" fill="url(#b)" fill-opacity=".6"/><rect x="56.693" y="61.165" width="60.105" height="6.09" rx="3.045" fill="url(#c)" fill-opacity=".6"/><rect x="56.693" y="74.139" width="30.715" height="6.09" rx="3.045" fill="url(#d)" fill-opacity=".6"/><path d="M93.987 49.013a4 4 0 0 1 4-4h41.043a4 4 0 0 1 4 4V103H93.987V49.013Z" fill="#FAFAFA"/><circle cx="104.571" cy="55.745" r="3.876" fill="#F6AD55"/><rect x="101.59" y="64.838" width="33.838" height="3.429" rx="1.714" fill="url(#e)" fill-opacity=".4"/><rect x="101.59" y="72.143" width="33.838" height="3.429" rx="1.714" fill="url(#f)" fill-opacity=".4"/><rect x="101.59" y="79.447" width="33.838" height="3.429" rx="1.714" fill="url(#g)" fill-opacity=".4"/><rect x="101.59" y="86.751" width="17.292" height="3.429" rx="1.714" fill="url(#h)" fill-opacity=".4"/><path d="M.97 23.29a4 4 0 0 1 4-4h41.043a4 4 0 0 1 4 4v49.987a4 4 0 0 1-4 4H4.97a4 4 0 0 1-4-4V23.29Z" fill="#D3F8E0"/><circle cx="11.553" cy="30.023" r="3.876" fill="#ECC94B"/><rect x="8.572" y="39.116" width="33.838" height="3.429" rx="1.714" fill="url(#i)" fill-opacity=".4"/><rect x="8.572" y="46.42" width="33.838" height="3.429" rx="1.714" fill="url(#j)" fill-opacity=".4"/><rect x="8.572" y="53.724" width="33.838" height="3.429" rx="1.714" fill="url(#k)" fill-opacity=".4"/><rect x="8.572" y="61.028" width="17.292" height="3.429" rx="1.714" fill="url(#l)" fill-opacity=".4"/><defs><linearGradient id="a" x1="56.656" y1="41.306" x2="116.709" y2="41.306" gradientUnits="userSpaceOnUse"><stop stop-color="#85AD95"/><stop offset="1" stop-color="#B5CEBF"/></linearGradient><linearGradient id="b" x1="56.656" y1="54.28" x2="116.709" y2="54.28" gradientUnits="userSpaceOnUse"><stop stop-color="#85AD95"/><stop offset="1" stop-color="#B5CEBF"/></linearGradient><linearGradient id="c" x1="56.656" y1="67.254" x2="116.709" y2="67.254" gradientUnits="userSpaceOnUse"><stop stop-color="#85AD95"/><stop offset="1" stop-color="#B5CEBF"/></linearGradient><linearGradient id="d" x1="56.674" y1="80.229" x2="87.362" y2="80.229" gradientUnits="userSpaceOnUse"><stop stop-color="#85AD95"/><stop offset="1" stop-color="#B5CEBF"/></linearGradient><linearGradient id="e" x1="101.569" y1="68.267" x2="135.377" y2="68.267" gradientUnits="userSpaceOnUse"><stop stop-color="#85AD95"/><stop offset="1" stop-color="#B5CEBF"/></linearGradient><linearGradient id="f" x1="101.569" y1="75.572" x2="135.377" y2="75.572" gradientUnits="userSpaceOnUse"><stop stop-color="#85AD95"/><stop offset="1" stop-color="#B5CEBF"/></linearGradient><linearGradient id="g" x1="101.569" y1="82.876" x2="135.377" y2="82.876" gradientUnits="userSpaceOnUse"><stop stop-color="#85AD95"/><stop offset="1" stop-color="#B5CEBF"/></linearGradient><linearGradient id="h" x1="101.579" y1="90.18" x2="118.856" y2="90.18" gradientUnits="userSpaceOnUse"><stop stop-color="#85AD95"/><stop offset="1" stop-color="#B5CEBF"/></linearGradient><linearGradient id="i" x1="8.551" y1="42.544" x2="42.36" y2="42.544" gradientUnits="userSpaceOnUse"><stop stop-color="#85AD95"/><stop offset="1" stop-color="#B5CEBF"/></linearGradient><linearGradient id="j" x1="8.551" y1="49.849" x2="42.36" y2="49.849" gradientUnits="userSpaceOnUse"><stop stop-color="#85AD95"/><stop offset="1" stop-color="#B5CEBF"/></linearGradient><linearGradient id="k" x1="8.551" y1="57.153" x2="42.36" y2="57.153" gradientUnits="userSpaceOnUse"><stop stop-color="#85AD95"/><stop offset="1" stop-color="#B5CEBF"/></linearGradient><linearGradient id="l" x1="8.561" y1="64.457" x2="25.838" y2="64.457" gradientUnits="userSpaceOnUse"><stop stop-color="#85AD95"/><stop offset="1" stop-color="#B5CEBF"/></linearGradient></defs></svg>
